images/email.svg

<?xml version="1.0" encoding="UTF-8" standalone="no"?>
<svg
   xmlns:dc="http://purl.org/dc/elements/1.1/"
   xmlns:cc="http://creativecommons.org/ns#"
   xmlns:rdf="http://www.w3.org/1999/02/22-rdf-syntax-ns#"
   xmlns:svg="http://www.w3.org/2000/svg"
   xmlns="http://www.w3.org/2000/svg"
   xmlns:sodipodi="http://sodipodi.sourceforge.net/DTD/sodipodi-0.dtd"
   xmlns:inkscape="http://www.inkscape.org/namespaces/inkscape"
   viewBox="0 0 800 800"
   id="svg2"
   version="1.1"
   inkscape:version="0.91 r13725"
   sodipodi:docname="email.svg">
  <metadata
     id="metadata38">
    <rdf:RDF>
      <cc:Work
         rdf:about="">
        <dc:format>image/svg+xml</dc:format>
        <dc:type
           rdf:resource="http://purl.org/dc/dcmitype/StillImage" />
        <dc:title />
      </cc:Work>
    </rdf:RDF>
  </metadata>
  <sodipodi:namedview
     pagecolor="#ffffff"
     bordercolor="#666666"
     borderopacity="1"
     objecttolerance="10"
     gridtolerance="10"
     guidetolerance="10"
     inkscape:pageopacity="0"
     inkscape:pageshadow="2"
     inkscape:window-width="1366"
     inkscape:window-height="705"
     id="namedview36"
     showgrid="false"
     inkscape:zoom="0.59"
     inkscape:cx="296.62128"
     inkscape:cy="359.92163"
     inkscape:window-x="-8"
     inkscape:window-y="-8"
     inkscape:window-maximized="1"
     inkscape:current-layer="svg2" />
  <defs
     id="defs4">
    <linearGradient
       gradientTransform="matrix(1.09055,0,-1.9790607e-7,1.84692,-749.05361,-141.73724)"
       gradientUnits="userSpaceOnUse"
       id="linearGradient5044"
       x1="61.39824"
       x2="65.97135"
       y1="558.51825"
       y2="352.70132">
      <stop
         offset="0"
         id="stop7" />
      <stop
         offset="1"
         stop-color="#fff"
         id="stop9" />
    </linearGradient>
    <linearGradient
       gradientUnits="userSpaceOnUse"
       id="linearGradient3185"
       x2="0"
       y1="755.09565"
       y2="194.02657">
      <stop
         offset="0"
         stop-color="#ffbc00"
         id="stop12" />
      <stop
         offset=".60039"
         stop-color="#ffb500"
         id="stop14" />
      <stop
         offset=".89116"
         stop-color="#ffff5d"
         id="stop16" />
      <stop
         offset="1"
         stop-color="#fffbea"
         id="stop18" />
    </linearGradient>
    <mask
       id="mask6700"
       maskUnits="userSpaceOnUse">
      <circle
         style="color:#000000;clip-rule:nonzero;display:inline;overflow:visible;visibility:visible;opacity:1;isolation:auto;mix-blend-mode:normal;color-interpolation:sRGB;color-interpolation-filters:linearRGB;solid-color:#000000;solid-opacity:1;fill:#ffffff;fill-opacity:1;fill-rule:nonzero;stroke:none;stroke-width:12.80099964;stroke-miterlimit:4;stroke-dasharray:none;stroke-opacity:1;color-rendering:auto;image-rendering:auto;shape-rendering:auto;text-rendering:auto;enable-background:accumulate"
         id="circle6702"
         cx="400"
         cy="652.36218"
         r="400" />
    </mask>
  </defs>
  <g
     transform="matrix(0.77503256,0,0,0.77503256,60.780685,71.638392)"
     id="g32" />
  <path
     mask="none"
     id="path5874"
     d="m 106.51193,237.49637 6.49312,359.99892 c 157.64163,6.90595 352.23354,6.7977 93.05871,3.40177 l 490.39717,4.57787 0,-367.97856 z"
     style="color:#000000;clip-rule:nonzero;display:inline;overflow:visible;visibility:visible;opacity:1;isolation:auto;mix-blend-mode:normal;color-interpolation:sRGB;color-interpolation-filters:linearRGB;solid-color:#000000;solid-opacity:1;fill:none;fill-opacity:0;fill-rule:nonzero;stroke:#8080ff;stroke-width:15.90784264;stroke-miterlimit:4;stroke-dasharray:none;stroke-opacity:1;color-rendering:auto;image-rendering:auto;shape-rendering:auto;text-rendering:auto;enable-background:accumulate"
     inkscape:connector-curvature="0"
     sodipodi:nodetypes="cccccc" />
  <path
     inkscape:connector-curvature="0"
     transform="matrix(1.2427032,0,0,1.2427032,-95.59487,-382.10629)"
     mask="url(#mask6700)"
     id="rect5274"
     d="m 162.63456,498.59206 0,296.11163 474.73088,0 0,-296.11163 -474.73088,0 z m 6.94391,7.46917 1.74911,0 163.61264,140.58794 -163.61001,140.58267 -1.75174,0 0,-281.17061 z m 459.29092,0 1.55214,0 0,281.17061 -1.55476,0 -159.90696,-140.58267 -66.24292,58.23536 226.1525,-198.8233 z m -448.94596,0.042 440.15314,0 -217.55928,191.27011 -222.59386,-191.2701 z m 158.70147,144.74011 63.93705,54.93674 62.49258,-54.93674 155.13497,136.38849 -440.29496,0 158.73036,-136.38849 z"
     style="color:#000000;clip-rule:nonzero;display:inline;overflow:visible;visibility:visible;opacity:1;isolation:auto;mix-blend-mode:normal;color-interpolation:sRGB;color-interpolation-filters:linearRGB;solid-color:#000000;solid-opacity:1;fill:none;fill-opacity:0.2;fill-rule:nonzero;stroke:#ffffff;stroke-width:12.80099964;stroke-miterlimit:4;stroke-dasharray:none;stroke-opacity:1;color-rendering:auto;image-rendering:auto;shape-rendering:auto;text-rendering:auto;enable-background:accumulate" />
</svg>

<svg xmlns="http://www.w3.org/2000/svg" viewBox="0 0 800 800"><defs><mask id="a" maskUnits="userSpaceOnUse"><circle style="isolation:auto;mix-blend-mode:normal" cx="400" cy="652.362" r="400" color="#000" overflow="visible" fill="#fff" stroke-width="12.801"/></mask></defs><path d="M106.512 237.496l6.493 360c157.642 6.905 352.234 6.797 93.059 3.401l490.397 4.578V237.496z" style="isolation:auto;mix-blend-mode:normal" color="#000" overflow="visible" fill="none" stroke="#8080ff" stroke-width="15.908"/><path transform="matrix(1.2427 0 0 1.2427 -95.595 -382.106)" mask="url(#a)" d="M162.635 498.592v296.112h474.73V498.592h-474.73zm6.943 7.47h1.75L334.94 646.648 171.33 787.232h-1.752v-281.17zm459.291 0h1.553v281.17h-1.555L468.96 646.649l-66.243 58.236L628.869 506.06zm-448.946.041h440.154l-217.56 191.27-222.594-191.27zm158.702 144.74l63.937 54.937 62.493-54.937L620.19 787.232H179.894l158.73-136.389z" style="isolation:auto;mix-blend-mode:normal" color="#000" overflow="visible" fill="none" stroke="#fff" stroke-width="12.801"/></svg>
